X:1
T:[ID 4-51r]
T:[ID 4-51r]
T:Bezeichnung standardisiert: Menuet [mit Trio] Menuet Con Trio Secondo In dieser Quelle auch als: Menuetto
T:Urheber unbekannt Datum in der hier transkribierten schriftlichen Quelle: 1767
C:Urheber unbekannt
C:Datum in der hier transkribierten schriftlichen Quelle: 1767
L:1/8
M:3/4
K:D
V:1 treble 
V:1
 D2 | (FA)(FA)(FA) | (EG)(EG)(EG) | (FA)(FA)(FA) | E2 A2 A2 | (FA)(FA)(FA) | (EG)(EG)(EG) | %7
 FGABGE | F4 :: de | f4 gf | (fe)(ed)(de) | f2 f2 gf | feed d2 | (FA)(FA)(FA) | (EG)(EG)(EG) || %16
 FGABGE | F4 :|[M:3/4]"^Trio" !fermata!F4 A2 | d3 e f2 | d3 e f2 | fe d2 A2 | F4 A2 | d3 e f2 | %24
 f2 (ff)(ed) | c4 :: A2 (AG)(GF) | DdAF D2 | e2 eddA | AECE A2 | f2 f2 f2 | g3 f e2 | dedGFE | %33
 F4 :| %34

